X:134
T:Cap. Lucas's Fancy
M: C|
L:1/8
B:Thompson's Compleat Collection of 200 Favourite Country Dances, vol. 3 (London, 1773)
Z:Transcribed and edited by Flynn Titford-Mock, 2007
Z:abc's:AK/Fiddler's Companion
K:G
GABc dBAG | ABcd edcB | cBAG AGFE | FEFD G2 G,2 :|
|: bagf gfed | edcB cBAG | ecBA dBAG | Agfa g2 G2 :|

